frontend/public/svg/interface/calculator.svg

<svg width="164" height="147" viewBox="0 0 164 147" fill="none" xmlns="http://www.w3.org/2000/svg">
<g clip-path="url(#clip0)">
<path d="M70.2245 82.5742C69.1244 82.7283 68.388 83.7392 67.7386 84.6335C67.5691 84.866 67.4067 85.0926 67.245 85.2862C64.9222 88.0773 62.6384 90.9299 60.22 93.9489C59.3826 94.9941 58.5224 96.0665 57.6392 97.166C56.4625 96.1325 55.3033 95.1132 54.1616 94.1082C50.7997 91.1488 47.6235 88.3525 44.3803 85.5595L44.2173 85.419C42.9465 84.1996 41.4895 83.1894 39.9008 82.4259C38.8059 81.9726 36.4485 82.5075 35.9393 83.5553C35.4744 84.5137 35.7848 85.7447 36.0576 86.8314C36.1225 87.0755 36.1795 87.3151 36.2288 87.5437C36.2976 87.7509 36.4087 87.942 36.5548 88.1045C36.701 88.2664 36.8792 88.3972 37.0783 88.4872C37.1948 88.5546 37.3052 88.631 37.4087 88.7158C41.574 92.7852 45.7348 96.8597 49.9475 100.985L52.4347 103.421L49.4617 107.112C46.4004 110.912 43.236 114.841 40.0955 118.68C39.2623 119.697 38.0051 121.233 39.3084 123.018C39.581 123.416 39.9466 123.741 40.3735 123.965C40.8005 124.19 41.2758 124.308 41.7586 124.308C42.6009 124.282 43.4158 124.004 44.0965 123.508C45.5048 122.521 46.764 121.338 47.8363 119.995C50.3598 116.907 52.7837 113.833 55.3495 110.578C56.1945 109.507 57.0468 108.428 57.9062 107.34C58.0707 107.459 58.2323 107.578 58.3916 107.694C59.0988 108.212 59.7673 108.696 60.4914 109.126L62.0439 110.048C66.0176 112.41 70.1271 114.853 74.2475 117.125C75.0391 117.472 75.908 117.608 76.7679 117.519C77.1283 117.519 77.4686 117.512 77.7848 117.538C77.8861 117.546 77.9881 117.532 78.0829 117.495C78.1771 117.458 78.2628 117.4 78.3316 117.326C78.4005 117.251 78.4511 117.162 78.4803 117.065C78.5096 116.968 78.516 116.865 78.4992 116.765C78.4492 116.416 78.4186 116.064 78.4069 115.711C78.3569 114.767 78.305 113.79 77.7088 113.121C75.3619 110.46 72.8325 107.964 70.1388 105.653C68.4256 104.249 66.6391 102.937 64.7857 101.723C64.1604 101.298 63.5345 100.872 62.9124 100.438C63.6462 99.3717 64.3695 98.3233 65.0826 97.293C67.2106 94.2144 69.2211 91.3055 71.2077 88.3415C71.3376 88.1472 71.4928 87.9394 71.6499 87.727C72.5052 86.5736 73.9352 84.6438 72.0116 83.1421C71.7688 82.9297 71.485 82.7698 71.1771 82.672C70.87 82.5742 70.5453 82.5412 70.2245 82.5742Z" fill="black"/>
<path d="M32.2088 44.8775C32.3939 45.007 32.5753 45.1366 32.7428 45.2661C33.2608 45.5692 33.8697 45.68 34.4617 45.5788C34.5715 45.5736 34.6797 45.5687 34.783 45.5674C37.0918 45.5333 39.4006 45.4943 41.7095 45.4507C43.3931 45.4201 45.0772 45.3906 46.7614 45.3625C47.5563 45.3502 48.3505 45.3536 49.1538 45.3568H49.7383C49.9084 46.2965 50.063 47.2191 50.2221 48.1283C50.6631 50.7083 51.08 53.1451 51.7093 55.5878C52.1574 57.3304 52.8885 60.1752 55.462 60.1745C55.6446 60.1741 55.8268 60.1606 56.0075 60.1344C59.1662 59.6856 58.9609 56.0808 58.8739 54.5415C58.744 52.2218 58.4329 49.9093 58.105 47.4608C57.9874 46.5885 57.868 45.6956 57.7524 44.7734L58.0882 44.7222C58.7636 44.6186 59.4092 44.5194 60.0573 44.4436C60.9756 44.3348 61.8958 44.2372 62.8166 44.1407C64.6291 43.9465 66.5041 43.7522 68.3412 43.4647C69.5504 43.2756 72.3818 42.8325 72.2422 39.8135C72.1065 36.8456 69.5037 36.7874 67.9477 36.7518C66.9736 36.733 65.993 36.7516 65.0439 36.7698C64.4529 36.7814 63.862 36.7938 63.2704 36.7957C61.517 36.8022 59.77 36.8005 57.9179 36.7998H56.0075C55.9096 36.0693 55.813 35.3375 55.7173 34.6045C55.4296 32.4098 55.1328 30.1414 54.7867 27.9112C54.7425 27.6262 54.7147 27.3211 54.6855 27.0102C54.5381 25.4425 54.3151 23.0725 51.5409 23.066H51.5304C51.1193 23.0394 50.7072 23.0957 50.3185 23.2317C49.9298 23.3676 49.5723 23.5802 49.268 23.8571C48.3828 24.7482 48.3985 26.1082 48.4122 27.3081C48.4161 27.6378 48.4198 27.9558 48.4023 28.2491C48.2601 30.5804 48.2887 32.8871 48.3186 35.3292C48.329 36.1581 48.3394 36.9992 48.3427 37.8546C48.2213 37.8682 48.0977 37.8812 47.9723 37.8961C47.2203 37.9783 46.401 38.0683 45.5809 38.1291C42.9512 38.3208 40.3211 38.5064 37.691 38.6859L33.3075 38.9917C32.7564 38.9902 32.2113 39.1034 31.7065 39.3241C31.2018 39.5447 30.7487 39.8681 30.3763 40.2733C30.1586 40.564 30.0067 40.8985 29.9312 41.2535C29.8556 41.6084 29.858 41.9756 29.9384 42.3295C30.1352 43.3961 31.2347 44.1826 32.2088 44.8775Z" fill="black"/>
<path d="M99.0073 43.1575C99.2158 43.1691 99.4619 43.1827 99.7139 43.1827C99.8353 43.1827 99.9587 43.1795 100.083 43.1717C102.328 43.0293 104.574 42.8912 106.82 42.7578C113.094 42.377 119.581 41.9846 125.955 41.4627C127.767 41.2274 129.54 40.7502 131.225 40.0439C131.633 39.8936 132.039 39.7439 132.444 39.6021C133.168 39.3489 134.189 38.2268 133.986 37.4251C133.861 36.9605 133.625 36.5332 133.296 36.1811C132.968 35.8291 132.558 35.5628 132.103 35.4059C130.467 35.0873 128.842 34.9124 127.41 34.7583C126.939 34.7071 126.5 34.6598 126.093 34.6106C126.046 34.6051 125.999 34.6051 125.953 34.6106C124.654 34.7233 123.424 34.8265 122.234 34.9256C119.745 35.1334 117.393 35.3302 115.071 35.5639C109.059 36.1707 103.084 36.8286 98.5502 37.3331C97.4267 37.4587 94.796 37.7515 95.0862 40.5147C95.3408 42.9554 97.5468 43.0765 99.0073 43.1575Z" fill="black"/>
<path d="M132.387 99.4547C130.93 99.0493 129.409 98.9263 127.906 99.0933C117.091 100.129 108.056 101.065 99.4755 102.035C98.6949 102.211 97.9871 102.623 97.4494 103.214C97.2273 103.419 96.9948 103.611 96.7526 103.792C96.6688 103.85 96.5999 103.929 96.5512 104.019C96.5025 104.109 96.4753 104.21 96.472 104.312C96.4688 104.414 96.4889 104.516 96.5311 104.609C96.574 104.703 96.637 104.786 96.7168 104.85C96.9487 105.048 97.1701 105.258 97.3792 105.48C97.8786 106.135 98.5897 106.598 99.3924 106.789C101.164 106.932 102.942 106.97 104.717 106.904C105.216 106.895 105.716 106.886 106.215 106.882C106.249 106.941 106.294 106.994 106.345 107.04C106.466 107.145 106.622 107.203 106.783 107.203C106.802 107.204 106.822 107.204 106.84 107.203L112.256 106.732C117.957 106.235 123.659 105.732 129.359 105.221C130.44 105.172 131.503 104.931 132.498 104.508C133.198 104.165 134.679 103.07 134.528 102.056C134.409 101.482 134.152 100.945 133.779 100.492C133.406 100.039 132.928 99.6826 132.387 99.4547Z" fill="black"/>
<path d="M101.315 95.2991C101.837 95.4332 102.376 95.496 102.916 95.4863C103.298 95.4863 103.68 95.4636 104.056 95.4429C104.316 95.428 104.583 95.4137 104.843 95.4073C104.943 95.4526 105.051 95.4727 105.16 95.4662C106.553 95.3859 107.946 95.3075 109.339 95.2324C112.53 95.0563 115.83 94.8737 119.074 94.6496C123.111 94.3679 127.061 94.0733 131.001 93.5656C131.796 93.3609 132.503 92.9044 133.015 92.2639C133.228 92.0438 133.454 91.8352 133.689 91.6384C133.765 91.5788 133.826 91.5037 133.869 91.4182C133.913 91.3321 133.937 91.2382 133.94 91.1423C133.944 91.0465 133.926 90.9506 133.889 90.8619C133.852 90.7732 133.797 90.6936 133.726 90.6288C133.493 90.4138 133.268 90.1852 133.043 89.9566C132.484 89.3336 131.838 88.7949 131.125 88.3564C130.43 88.0715 129.664 88.0055 128.93 88.1687C128.769 88.1874 128.612 88.2056 128.461 88.2172L126.777 88.3506C122.019 88.7288 117.101 89.1199 112.262 89.5584C109.261 89.8303 105.309 90.2137 101.365 90.7693C100.704 90.9383 100.11 91.3081 99.6678 91.8268C99.4963 91.9971 99.3151 92.159 99.1262 92.3106C99.0508 92.3682 98.9878 92.4414 98.943 92.5256C98.8976 92.6091 98.8716 92.7017 98.8651 92.7969C98.8593 92.8921 98.8735 92.9873 98.9073 93.076C98.9411 93.1654 98.9937 93.2457 99.0619 93.313C99.2502 93.5053 99.4288 93.7061 99.597 93.9165C100.015 94.5415 100.614 95.0239 101.315 95.2991Z" fill="black"/>
<path d="M20.8226 144.103C25.4195 145.056 30.0848 145.646 34.7749 145.864C43.5042 146.22 52.3828 146.417 60.9698 146.608C64.461 146.686 67.9522 146.768 71.4427 146.852H71.4603C71.5895 146.853 71.7168 146.815 71.8252 146.744H74.5436C76.8503 146.744 79.1583 146.744 81.4675 146.744L85.1484 146.75C99.5989 146.778 114.544 146.807 129.134 144.527C134.224 143.731 140.17 142.621 145.678 140.412C156.733 135.982 162.699 127.814 163.407 116.133C163.862 108.621 163.518 101.056 163.184 93.7422C163.119 92.3383 163.057 90.9337 162.996 89.5285C162.42 75.7675 161.862 64.2783 161.237 53.3699C160.814 45.9726 160.211 36.2381 159.292 26.5407C157.953 12.3917 146.539 2.15092 131.536 1.63739C120.432 1.25597 109.132 1.09682 98.2007 0.942697C95.0888 0.899957 91.9223 0.925964 88.8603 0.951867C83.8346 0.993959 78.6394 1.0372 73.5559 0.769108C62.0107 0.162326 49.7711 0.670171 33.8776 2.42251C23.5391 3.56225 15.7592 6.59289 9.3905 11.9613C4.14139 16.3849 1.58277 21.5167 1.56978 27.6492C1.56523 29.6231 1.52553 31.6241 1.4515 33.5967C1.38656 35.3341 1.2665 37.1086 1.1509 38.8253C0.825255 42.4988 0.738233 46.1896 0.890888 49.8743C0.988298 51.4103 1.08785 52.946 1.18959 54.4817C1.97861 66.5181 2.79447 78.9639 1.96583 91.2432C1.62489 96.3028 1.71767 101.462 1.80728 106.452L1.82758 107.572C1.97824 116.139 3.23483 123.671 5.67008 130.598C8.29431 138.071 13.3928 142.615 20.8226 144.103ZM20.0067 13.746L20.1659 13.6596C24.6364 11.2118 29.5893 10.3572 34.2786 9.69861C44.9527 8.29822 55.7124 7.64902 66.478 7.75587C70.9635 7.75587 75.3859 7.83028 79.7226 7.92094C87.5966 8.08607 95.6031 8.19357 103.345 8.29654C110.129 8.38784 117.144 8.48161 124.042 8.61437C127.232 8.65244 130.415 8.9241 133.565 9.42662C144.889 11.3078 151.151 18.6499 151.676 30.6585C152.106 40.5237 152.503 50.5569 152.888 60.2602C153.175 67.5309 153.467 74.8019 153.766 82.0729C153.875 84.7034 154.025 87.374 154.171 89.9572C154.4 93.9993 154.636 98.1814 154.719 102.286C154.818 107.156 154.547 112.135 154.264 116.817C153.849 123.642 149.865 128.491 142.428 131.227C137.872 132.823 133.163 133.944 128.376 134.573C112.254 136.969 95.7083 136.865 79.707 136.761L77.5932 136.747C76.7626 136.743 75.9327 136.743 75.1047 136.747H73.9221C73.8176 136.747 73.715 136.772 73.6215 136.819C73.5286 136.866 73.4481 136.934 73.3857 137.017C69.879 136.928 66.3722 136.841 62.8653 136.758C52.6275 136.508 42.0412 136.248 31.6338 135.907C28.9492 135.745 26.2812 135.374 23.6539 134.801L23.1843 134.711C18.7846 133.873 15.8408 131.162 14.4348 126.655C12.3008 119.611 11.2333 112.289 11.2677 104.93C11.2443 101.566 11.2926 98.1412 11.3387 94.8282C11.4004 90.4098 11.4638 85.8412 11.3606 81.3444C11.1794 73.5236 10.782 65.0902 10.1125 54.8121C9.58324 46.7076 9.26107 36.0233 11.4957 25.1958C11.547 25.0476 11.5692 24.8905 11.5607 24.7339C11.0386 18.6505 15.396 16.2663 20.0067 13.744V13.746Z" fill="black"/>
</g>
<defs>
<clipPath id="clip0">
<rect width="163" height="147" fill="white" transform="translate(0.777344)"/>
</clipPath>
</defs>
</svg>

<svg xmlns="http://www.w3.org/2000/svg" width="164" height="147" fill="none" viewBox="0 0 164 147"><g fill="#000" clip-path="url(#a)"><path d="M70.225 82.574c-1.1.154-1.837 1.165-2.486 2.06-.17.232-.332.459-.494.652-2.323 2.791-4.607 5.644-7.025 8.663l-2.58 3.217-3.478-3.058c-3.362-2.96-6.538-5.755-9.782-8.549l-.163-.14a16.7 16.7 0 0 0-4.316-2.993c-1.095-.453-3.453.081-3.962 1.13-.465.958-.154 2.189.119 3.275q.097.368.17.713a1.6 1.6 0 0 0 .85.943q.175.102.33.229c4.166 4.07 8.327 8.144 12.54 12.269l2.487 2.436-2.973 3.691c-3.062 3.8-6.226 7.729-9.367 11.568-.833 1.017-2.09 2.553-.787 4.338a2.97 2.97 0 0 0 2.45 1.29 4.2 4.2 0 0 0 2.338-.8 18 18 0 0 0 3.74-3.513c2.524-3.088 4.948-6.162 7.514-9.417l2.556-3.238.486.354c.707.518 1.375 1.002 2.1 1.432l1.552.922c3.974 2.362 8.083 4.805 12.204 7.077.791.347 1.66.483 2.52.394.36 0 .7-.007 1.017.019a.67.67 0 0 0 .547-.212.67.67 0 0 0 .167-.561 10 10 0 0 1-.092-1.054c-.05-.944-.102-1.921-.698-2.59a77 77 0 0 0-7.57-7.468 62 62 0 0 0-5.353-3.93 186 186 0 0 1-1.874-1.285q1.102-1.6 2.17-3.145c2.129-3.079 4.14-5.988 6.126-8.952.13-.194.285-.402.442-.614.855-1.153 2.285-3.083.362-4.585a2.35 2.35 0 0 0-1.787-.568M32.209 44.878c.185.129.366.259.534.388a2.55 2.55 0 0 0 1.719.313q.166-.008.321-.012a1684 1684 0 0 0 6.926-.116l5.052-.089c.795-.012 1.59-.008 2.393-.005h.584c.17.94.325 1.862.484 2.771.441 2.58.858 5.017 1.487 7.46.448 1.742 1.18 4.587 3.753 4.587q.275 0 .545-.04c3.16-.45 2.954-4.054 2.867-5.593-.13-2.32-.441-4.633-.769-7.081-.118-.872-.237-1.765-.353-2.688l.336-.05c.676-.104 1.321-.204 1.97-.28q1.377-.16 2.759-.302c1.812-.194 3.687-.389 5.524-.676 1.21-.19 4.04-.633 3.901-3.652-.136-2.967-2.738-3.026-4.294-3.061-.974-.019-1.955 0-2.904.018-.591.011-1.182.024-1.774.026-1.753.006-3.5.005-5.352.004h-1.91q-.147-1.095-.29-2.195c-.288-2.195-.585-4.464-.931-6.694-.044-.285-.072-.59-.102-.9-.147-1.569-.37-3.938-3.144-3.945h-.01a3.07 3.07 0 0 0-2.263.791c-.885.891-.87 2.251-.856 3.451.004.33.008.648-.01.941-.142 2.331-.113 4.638-.083 7.08q.017 1.243.024 2.526-.183.019-.37.041c-.753.082-1.572.172-2.392.233q-3.945.288-7.89.557l-4.384.306a3.97 3.97 0 0 0-2.93 1.281 2.5 2.5 0 0 0-.439 2.057c.197 1.066 1.297 1.853 2.27 2.547m66.799-1.719c.209.011.455.025.707.025q.182 0 .369-.011 3.368-.214 6.737-.414c6.274-.381 12.761-.773 19.135-1.295a20.4 20.4 0 0 0 5.27-1.42c.408-.15.814-.3 1.219-.44.724-.254 1.745-1.376 1.542-2.178a2.94 2.94 0 0 0-1.883-2.02c-1.636-.318-3.261-.493-4.693-.647q-.707-.074-1.317-.147a.6.6 0 0 0-.14 0c-1.299.112-2.529.216-3.719.315-2.489.207-4.841.404-7.163.638-6.012.607-11.987 1.265-16.52 1.77-1.124.125-3.755.417-3.465 3.18.255 2.441 2.46 2.563 3.921 2.643m33.38 56.298a11.8 11.8 0 0 0-4.481-.362c-10.815 1.036-19.85 1.972-28.43 2.942a3.9 3.9 0 0 0-2.027 1.179 9 9 0 0 1-.696.578.66.66 0 0 0-.281.52.67.67 0 0 0 .245.538q.348.297.662.63c.5.655 1.21 1.118 2.013 1.309 1.772.143 3.55.181 5.325.115q.749-.015 1.498-.022a.7.7 0 0 0 .13.158.67.67 0 0 0 .495.163l5.416-.471q8.552-.745 17.103-1.511a9.1 9.1 0 0 0 3.139-.713c.7-.343 2.181-1.438 2.03-2.452a3.62 3.62 0 0 0-2.141-2.601M101.315 95.3a6 6 0 0 0 1.601.186c.382 0 .764-.022 1.14-.043.26-.015.527-.03.787-.036q.152.069.317.06 2.09-.122 4.179-.235c3.191-.176 6.491-.358 9.735-.582 4.037-.282 7.987-.577 11.927-1.084a3.8 3.8 0 0 0 2.014-1.302q.32-.33.674-.626a.65.65 0 0 0 .251-.496.66.66 0 0 0-.214-.513c-.233-.215-.458-.444-.683-.672a8.7 8.7 0 0 0-1.918-1.6 3.7 3.7 0 0 0-2.195-.188 12 12 0 0 1-.469.048l-1.684.134c-4.758.378-9.676.769-14.515 1.207-3.001.272-6.953.656-10.897 1.211a3.3 3.3 0 0 0-1.697 1.058q-.258.255-.542.484a.664.664 0 0 0-.064 1.002q.282.288.535.603a3.7 3.7 0 0 0 1.718 1.383"/><path d="M20.823 144.103a89 89 0 0 0 13.952 1.761c8.73.356 17.608.553 26.195.744q5.237.118 10.473.244h.017a.66.66 0 0 0 .365-.108h9.643l3.68.006c14.45.028 29.396.057 43.986-2.223 5.09-.796 11.036-1.906 16.544-4.115 11.055-4.43 17.021-12.598 17.729-24.279.455-7.512.111-15.077-.223-22.39q-.097-2.107-.188-4.215c-.576-13.76-1.134-25.25-1.759-36.158-.423-7.397-1.026-17.132-1.945-26.83-1.339-14.148-12.753-24.39-27.756-24.903-11.104-.381-22.404-.54-33.335-.694C95.089.9 91.922.926 88.86.952c-5.026.042-10.222.085-15.305-.183C62.01.162 49.77.67 33.878 2.423 23.539 3.563 15.759 6.593 9.39 11.96c-5.25 4.425-7.808 9.557-7.82 15.69a170 170 0 0 1-.119 5.948c-.064 1.737-.185 3.512-.3 5.228a85 85 0 0 0-.26 11.05q.146 2.303.299 4.607c.789 12.036 1.604 24.482.776 36.761-.341 5.06-.248 10.219-.159 15.209l.02 1.12c.151 8.567 1.408 16.099 3.843 23.026 2.624 7.473 7.723 12.017 15.153 13.505m-.816-130.357.159-.086c4.47-2.448 9.423-3.303 14.113-3.961a230 230 0 0 1 32.199-1.943c4.486 0 8.908.074 13.245.165 7.874.165 15.88.273 23.622.376 6.784.09 13.799.185 20.697.317 3.19.038 6.373.31 9.523.813 11.324 1.88 17.586 9.223 18.111 21.232.43 9.865.827 19.898 1.212 29.601q.43 10.906.878 21.813c.109 2.63.259 5.301.405 7.884.229 4.042.465 8.224.548 12.329.099 4.87-.172 9.849-.455 14.531-.415 6.825-4.399 11.674-11.836 14.41a70 70 0 0 1-14.052 3.346c-16.122 2.396-32.668 2.292-48.669 2.188l-2.114-.014q-1.245-.006-2.488 0h-1.183a.67.67 0 0 0-.536.27q-5.26-.134-10.52-.259c-10.239-.25-20.825-.51-31.232-.851a52 52 0 0 1-7.98-1.106l-.47-.09c-4.4-.838-7.343-3.549-8.75-8.056a73.7 73.7 0 0 1-3.166-21.725c-.024-3.364.025-6.789.07-10.102.062-4.418.126-8.987.023-13.484-.182-7.82-.579-16.254-1.248-26.532-.53-8.104-.852-18.789 1.383-29.616a1.2 1.2 0 0 0 .065-.462c-.522-6.084 3.835-8.468 8.446-10.99z"/></g><defs><clipPath id="a"><path fill="#fff" d="M.777 0h163v147h-163z"/></clipPath></defs></svg>
